icons/tokens/0x3472A5A71965499acd81997a54BBA8D852C6E53d/logo.svg

<svg width="32" height="32" viewBox="0 0 32 32" fill="none" xmlns="http://www.w3.org/2000/svg">
<path fill-rule="evenodd" clip-rule="evenodd" d="M32 16C32 13.9059 31.5834 11.8118 30.7821 9.87712C29.9808 7.9424 28.7946 6.16704 27.3136 4.6864C25.833 3.20544 24.0576 2.0192 22.1229 1.21792C20.1882 0.41664 18.0941 0 16 0C13.9059 0 11.8118 0.41664 9.87712 1.21792C7.9424 2.0192 6.16704 3.20544 4.6864 4.6864C3.20544 6.16704 2.0192 7.9424 1.21792 9.87712C0.41664 11.8118 0 13.9059 0 16C0 18.0941 0.41664 20.1882 1.21792 22.1229C2.0192 24.0576 3.20544 25.833 4.6864 27.3136C6.16704 28.7946 7.9424 29.9808 9.87712 30.7821C11.8118 31.5834 13.9059 32 16 32C18.0941 32 20.1882 31.5834 22.1229 30.7821C24.0576 29.9808 25.833 28.7946 27.3136 27.3136C28.7946 25.833 29.9808 24.0576 30.7821 22.1229C31.5834 20.1882 32 18.0941 32 16Z" fill="#FFA415"/>
<path fill-rule="evenodd" clip-rule="evenodd" d="M8.43329 19.929V20.511V21.0931H9.01537V21.6752H9.59745V22.2573H10.1795V22.8394H10.7616V23.4214H11.3437V24.0035H11.9258V23.4214V22.8394H11.3437V22.2573H10.7616V21.6752H10.1795V21.0931H9.59745V20.511H9.01537V19.929H8.43329Z" fill="black"/>
<path fill-rule="evenodd" clip-rule="evenodd" d="M11.9258 24.5853H12.5078V24.0035V23.4214V22.8394V22.2573V21.6752H11.9258V22.2573V22.8394V23.4214V24.0035V24.5853Z" fill="#C7C7C7"/>
<path fill-rule="evenodd" clip-rule="evenodd" d="M11.3437 21.6752H11.9257V21.0931V20.511H11.3437V21.0931V21.6752Z" fill="#C7C7C7"/>
<path fill-rule="evenodd" clip-rule="evenodd" d="M10.7616 20.511H11.3437V19.929V19.3469H10.7616V19.929V20.511Z" fill="#C7C7C7"/>
<path fill-rule="evenodd" clip-rule="evenodd" d="M10.1795 19.3469H10.7616V18.7648V18.1827V17.601V17.0189H10.1795V17.601V18.1827V18.7648V19.3469Z" fill="#C7C7C7"/>
<path fill-rule="evenodd" clip-rule="evenodd" d="M9.59744 17.0189H10.1795V16.4368V15.8547V15.2726H9.59744V15.8547V16.4368V17.0189Z" fill="#C7C7C7"/>
<path fill-rule="evenodd" clip-rule="evenodd" d="M9.01535 15.2726H9.59743V14.6906V14.1085V13.5264H9.01535V14.1085V14.6906V15.2726Z" fill="#C7C7C7"/>
<path fill-rule="evenodd" clip-rule="evenodd" d="M8.43329 13.5264H9.01537V12.9443V12.3622H8.43329V12.9443V13.5264Z" fill="#C7C7C7"/>
<path fill-rule="evenodd" clip-rule="evenodd" d="M7.8512 11.7802V12.3622H8.43328V11.7802H7.8512Z" fill="#C7C7C7"/>
<path fill-rule="evenodd" clip-rule="evenodd" d="M23.5667 19.929V20.511V21.0931H22.9846V21.6752H22.4026V22.2573H21.8205V22.8394H21.2384V23.4214H20.6563V24.0035H20.0742V23.4214V22.8394H20.6563V22.2573H21.2384V21.6752H21.8205V21.0931H22.4026V20.511H22.9846V19.929H23.5667Z" fill="black"/>
<path fill-rule="evenodd" clip-rule="evenodd" d="M20.0742 24.5853H19.4922V24.0035V23.4214V22.8394V22.2573V21.6752H20.0742V22.2573V22.8394V23.4214V24.0035V24.5853Z" fill="#C7C7C7"/>
<path fill-rule="evenodd" clip-rule="evenodd" d="M20.6563 21.6752H20.0742V21.0931V20.511H20.6563V21.0931V21.6752Z" fill="#C7C7C7"/>
<path fill-rule="evenodd" clip-rule="evenodd" d="M21.2384 20.511H20.6563V19.929V19.3469H21.2384V19.929V20.511Z" fill="#C7C7C7"/>
<path fill-rule="evenodd" clip-rule="evenodd" d="M21.8205 19.3469H21.2384V18.7648V18.1827V17.601V17.0189H21.8205V17.601V18.1827V18.7648V19.3469Z" fill="#C7C7C7"/>
<path fill-rule="evenodd" clip-rule="evenodd" d="M22.4025 17.0189H21.8205V16.4368V15.8547V15.2726H22.4025V15.8547V16.4368V17.0189Z" fill="#C7C7C7"/>
<path fill-rule="evenodd" clip-rule="evenodd" d="M22.9846 15.2726H22.4026V14.6906V14.1085V13.5264H22.9846V14.1085V14.6906V15.2726Z" fill="#C7C7C7"/>
<path fill-rule="evenodd" clip-rule="evenodd" d="M23.5667 13.5264H22.9846V12.9443V12.3622H23.5667V12.9443V13.5264Z" fill="#C7C7C7"/>
<path fill-rule="evenodd" clip-rule="evenodd" d="M24.1488 11.7802V12.3622H23.5667V11.7802H24.1488Z" fill="#C7C7C7"/>
<path fill-rule="evenodd" clip-rule="evenodd" d="M7.8512 7.12384V7.70592H8.43328V7.12384H7.8512Z" fill="white"/>
<path fill-rule="evenodd" clip-rule="evenodd" d="M9.59744 7.12384V7.70592H10.1795V7.12384H9.59744Z" fill="white"/>
<path fill-rule="evenodd" clip-rule="evenodd" d="M9.59745 6.54176H9.01537H8.43329V7.12384H9.01537H9.59745V6.54176Z" fill="white"/>
<path fill-rule="evenodd" clip-rule="evenodd" d="M9.59745 5.95968H9.01537H8.43329V6.54176H9.01537H9.59745V5.95968Z" fill="#C7C7C7"/>
<path fill-rule="evenodd" clip-rule="evenodd" d="M11.3437 7.12384H10.7616V6.54176H10.1795H9.59744V7.12384H10.1795V7.70592H10.7616H11.3437V7.12384Z" fill="#C7C7C7"/>
<path fill-rule="evenodd" clip-rule="evenodd" d="M24.1488 7.12384V7.70592H23.5667V7.12384H24.1488Z" fill="white"/>
<path fill-rule="evenodd" clip-rule="evenodd" d="M22.4025 7.12384V7.70592H21.8205V7.12384H22.4025Z" fill="white"/>
<path fill-rule="evenodd" clip-rule="evenodd" d="M22.4026 6.54176H22.9846H23.5667V7.12384H22.9846H22.4026V6.54176Z" fill="white"/>
<path fill-rule="evenodd" clip-rule="evenodd" d="M22.4026 5.95968H22.9846H23.5667V6.54176H22.9846H22.4026V5.95968Z" fill="#C7C7C7"/>
<path fill-rule="evenodd" clip-rule="evenodd" d="M20.6563 7.12384H21.2384V6.54176H21.8205H22.4026V7.12384H21.8205V7.70592H21.2384H20.6563V7.12384Z" fill="#C7C7C7"/>
<path fill-rule="evenodd" clip-rule="evenodd" d="M9.59744 20.511V21.0931H10.1795V20.511H9.59744Z" fill="#C7C7C7"/>
<path fill-rule="evenodd" clip-rule="evenodd" d="M10.1795 21.0931V21.6752H10.7616V21.0931H10.1795Z" fill="#C7C7C7"/>
<path fill-rule="evenodd" clip-rule="evenodd" d="M10.7616 21.6752V22.2573H11.3437V21.6752H10.7616Z" fill="#C7C7C7"/>
<path fill-rule="evenodd" clip-rule="evenodd" d="M11.3437 22.2573V22.8394H11.9257V22.2573H11.3437Z" fill="#C7C7C7"/>
<path fill-rule="evenodd" clip-rule="evenodd" d="M9.01535 19.929V20.511H9.59743V19.929H9.01535Z" fill="#C7C7C7"/>
<path fill-rule="evenodd" clip-rule="evenodd" d="M8.43329 19.3469V19.929H9.01537V19.3469H8.43329Z" fill="#C7C7C7"/>
<path fill-rule="evenodd" clip-rule="evenodd" d="M22.4025 20.511V21.0931H21.8205V20.511H22.4025Z" fill="#C7C7C7"/>
<path fill-rule="evenodd" clip-rule="evenodd" d="M21.8205 21.0931V21.6752H21.2384V21.0931H21.8205Z" fill="#C7C7C7"/>
<path fill-rule="evenodd" clip-rule="evenodd" d="M21.2384 21.6752V22.2573H20.6563V21.6752H21.2384Z" fill="#C7C7C7"/>
<path fill-rule="evenodd" clip-rule="evenodd" d="M20.6563 22.2573V22.8394H20.0742V22.2573H20.6563Z" fill="#C7C7C7"/>
<path fill-rule="evenodd" clip-rule="evenodd" d="M22.9846 19.929V20.511H22.4026V19.929H22.9846Z" fill="#C7C7C7"/>
<path fill-rule="evenodd" clip-rule="evenodd" d="M23.5667 19.3469V19.929H22.9846V19.3469H23.5667Z" fill="#C7C7C7"/>
<path fill-rule="evenodd" clip-rule="evenodd" d="M9.01537 19.3469V19.929H9.59745V20.511H10.1795V21.0931H10.7616V21.6752H11.3437V21.0931V20.511H10.7616V19.929V19.3469H10.1795V18.7648V18.1827V17.601V17.0189H9.59745V16.4368V15.8547V15.2726H9.01537V14.6906V14.1085V13.5264H8.43329V12.9443V12.3622H7.85121V11.7802H7.26913V12.3622V12.9443H6.68705V13.5264V14.1085V14.6906H6.10529V15.2726V15.8547V16.4368V17.0189H6.68705V17.601V18.1827H7.26913V18.7648H7.85121V19.3469H8.43329H9.01537Z" fill="white"/>
<path fill-rule="evenodd" clip-rule="evenodd" d="M11.9257 21.6752H11.3437V22.2573H11.9257V21.6752Z" fill="white"/>
<path fill-rule="evenodd" clip-rule="evenodd" d="M22.9846 19.3469V19.929H22.4026V20.511H21.8205V21.0931H21.2384V21.6752H20.6563V21.0931V20.511H21.2384V19.929V19.3469H21.8205V18.7648V18.1827V17.601V17.0189H22.4026V16.4368V15.8547V15.2726H22.9846V14.6906V14.1085V13.5264H23.5667V12.9443V12.3622H24.1488V11.7802H24.7309V12.3622V12.9443H25.313V13.5264V14.1085V14.6906H25.8947V15.2726V15.8547V16.4368V17.0189H25.313V17.601V18.1827H24.7309V18.7648H24.1488V19.3469H23.5667H22.9846Z" fill="white"/>
<path fill-rule="evenodd" clip-rule="evenodd" d="M20.0742 21.6752H20.6563V22.2573H20.0742V21.6752Z" fill="white"/>
<path fill-rule="evenodd" clip-rule="evenodd" d="M13.6717 11.1984H14.2538V9.45216H13.6717V8.288H14.2538V7.70592H13.6717V6.54176H12.5079V7.12384H11.3437V7.70592H9.59745V7.12384H8.43329V7.70592H7.26913V10.0342H7.85121V11.7802H8.43329V12.3622H9.01537V13.5264H9.59745V15.2726H10.1795V17.0189H10.7616V19.3469H11.3437V20.511H11.9258V21.6752H12.5079V24.5853H13.0896V24.0035H13.6717V20.511H14.2538V17.601H13.6717V11.1984Z" fill="#191919"/>
<path fill-rule="evenodd" clip-rule="evenodd" d="M13.0896 19.3469H11.9257V18.7648H11.3437V17.601H11.9257V17.0189H13.0896V17.601H13.6717V18.7648H13.0896V19.3469Z" fill="black"/>
<path fill-rule="evenodd" clip-rule="evenodd" d="M11.9258 18.1827H12.5078V17.601H11.9258V18.1827Z" fill="white"/>
<path fill-rule="evenodd" clip-rule="evenodd" d="M18.3283 11.1984H17.7462V9.45216H18.3283V8.288H17.7462V7.70592H18.3283V6.54176H19.4922V7.12384H20.6563V7.70592H22.4026V7.12384H23.5667V7.70592H24.7309V10.0342H24.1488V11.7802H23.5667V12.3622H22.9846V13.5264H22.4026V15.2726H21.8205V17.0189H21.2384V19.3469H20.6563V20.511H20.0742V21.6752H19.4922V24.5853H18.9104V24.0035H18.3283V20.511H17.7462V17.601H18.3283V11.1984Z" fill="#191919"/>
<path fill-rule="evenodd" clip-rule="evenodd" d="M18.9104 19.3469H20.0742V18.7648H20.6563V17.601H20.0742V17.0189H18.9104V17.601H18.3283V18.7648H18.9104V19.3469Z" fill="black"/>
<path fill-rule="evenodd" clip-rule="evenodd" d="M19.4922 18.1827H18.9104V17.601H19.4922V18.1827Z" fill="white"/>
<path fill-rule="evenodd" clip-rule="evenodd" d="M7.26913 7.70592V6.54176H8.43329V7.12384H7.85121V7.70592H7.26913Z" fill="#C7C7C7"/>
<path fill-rule="evenodd" clip-rule="evenodd" d="M24.7309 7.70592V6.54176H23.5667V7.12384H24.1488V7.70592H24.7309Z" fill="#C7C7C7"/>
<path fill-rule="evenodd" clip-rule="evenodd" d="M14.2538 11.1984V17.601H13.6717V11.1984H14.2538Z" fill="#C7C7C7"/>
<path fill-rule="evenodd" clip-rule="evenodd" d="M14.2538 9.45215V8.28799H13.6717V9.45215H14.2538Z" fill="#C7C7C7"/>
<path fill-rule="evenodd" clip-rule="evenodd" d="M14.2538 7.70592V6.54176H13.6717V7.70592H14.2538Z" fill="#C7C7C7"/>
<path fill-rule="evenodd" clip-rule="evenodd" d="M14.2538 20.511V24.0035H13.6717V20.511H14.2538Z" fill="#C7C7C7"/>
<path fill-rule="evenodd" clip-rule="evenodd" d="M17.7462 11.1984V17.601H18.3283V11.1984H17.7462Z" fill="#C7C7C7"/>
<path fill-rule="evenodd" clip-rule="evenodd" d="M17.7462 9.45215V8.28799H18.3283V9.45215H17.7462Z" fill="#C7C7C7"/>
<path fill-rule="evenodd" clip-rule="evenodd" d="M17.7462 7.70592V6.54176H18.3283V7.70592H17.7462Z" fill="#C7C7C7"/>
<path fill-rule="evenodd" clip-rule="evenodd" d="M17.7462 20.511V24.0035H18.3283V20.511H17.7462Z" fill="#C7C7C7"/>
<path fill-rule="evenodd" clip-rule="evenodd" d="M14.2538 17.601H14.8358V20.511H14.2538V17.601Z" fill="#C7C7C7"/>
<path fill-rule="evenodd" clip-rule="evenodd" d="M17.7462 17.601H17.1642V20.511H17.7462V17.601Z" fill="#C7C7C7"/>
<path fill-rule="evenodd" clip-rule="evenodd" d="M14.2538 9.45216H14.8358V11.1984H14.2538V9.45216Z" fill="#C7C7C7"/>
<path fill-rule="evenodd" clip-rule="evenodd" d="M17.7462 9.45216H17.1642V11.1984H17.7462V9.45216Z" fill="#C7C7C7"/>
<path fill-rule="evenodd" clip-rule="evenodd" d="M14.2538 7.70592V8.288H14.8358V7.70592H14.2538Z" fill="#C7C7C7"/>
<path fill-rule="evenodd" clip-rule="evenodd" d="M17.7462 7.70592V8.288H17.1642V7.70592H17.7462Z" fill="#C7C7C7"/>
<path fill-rule="evenodd" clip-rule="evenodd" d="M13.0896 24.0035V24.5853H13.6717V24.0035H13.0896Z" fill="#C7C7C7"/>
<path fill-rule="evenodd" clip-rule="evenodd" d="M13.6717 24.5853V25.1674H14.2538V24.5853H13.6717Z" fill="#C7C7C7"/>
<path fill-rule="evenodd" clip-rule="evenodd" d="M13.6717 24.0035V24.5853H14.2538V24.0035H13.6717Z" fill="white"/>
<path fill-rule="evenodd" clip-rule="evenodd" d="M13.0896 24.5853V25.1674H13.6717V24.5853H13.0896Z" fill="white"/>
<path fill-rule="evenodd" clip-rule="evenodd" d="M13.6717 26.9136V27.4957H14.2538V26.9136H13.6717Z" fill="#C7C7C7"/>
<path fill-rule="evenodd" clip-rule="evenodd" d="M13.6717 26.9136V26.3315V25.7494V25.1674H13.0896V24.5853H12.5078V25.1674V25.7494H13.0896V26.3315V26.9136H13.6717Z" fill="#C7C7C7"/>
<path fill-rule="evenodd" clip-rule="evenodd" d="M18.3283 26.9136V26.3315V25.7494V25.1674H18.9104V24.5853H19.4921V25.1674V25.7494H18.9104V26.3315V26.9136H18.3283Z" fill="#C7C7C7"/>
<path fill-rule="evenodd" clip-rule="evenodd" d="M18.3283 26.9136V27.4957H17.7462V26.9136H18.3283Z" fill="#C7C7C7"/>
<path fill-rule="evenodd" clip-rule="evenodd" d="M18.9104 24.0035V24.5853H18.3283V24.0035H18.9104Z" fill="#C7C7C7"/>
<path fill-rule="evenodd" clip-rule="evenodd" d="M18.3283 24.5853V25.1674H17.7462V24.5853H18.3283Z" fill="#C7C7C7"/>
<path fill-rule="evenodd" clip-rule="evenodd" d="M18.3283 24.0035V24.5853H17.7462V24.0035H18.3283Z" fill="white"/>
<path fill-rule="evenodd" clip-rule="evenodd" d="M18.9104 24.5853V25.1674H18.3283V24.5853H18.9104Z" fill="white"/>
<path fill-rule="evenodd" clip-rule="evenodd" d="M14.2538 24.5853H17.7462V24.0035H14.2538V24.5853Z" fill="#C7C7C7"/>
<path fill-rule="evenodd" clip-rule="evenodd" d="M14.2538 25.1674V24.5853H17.7463V25.1674H18.3283V26.9136H17.7463V27.4957H17.1642V28.0778H14.8359V27.4957H14.2538V26.9136H13.6717V25.1674H14.2538Z" fill="#191919"/>
<path fill-rule="evenodd" clip-rule="evenodd" d="M14.2538 6.54176H17.7462V7.70592H17.1642V8.288H17.7462V9.45216H17.1642V11.1984H17.7462V17.601H17.1642V20.511H17.7462V24.0035H14.2538V20.511H14.8358V17.601H14.2538V11.1984H14.8358V9.45216H14.2538V8.288H14.8358V7.70592H14.2538V6.54176Z" fill="white"/>
</svg>

<svg width="32" height="32" fill="none" xmlns="http://www.w3.org/2000/svg"><path fill-rule="evenodd" clip-rule="evenodd" d="M32 16c0-2.094-.417-4.188-1.218-6.123a16.046 16.046 0 00-3.468-5.19 16.046 16.046 0 00-5.191-3.47A16.055 16.055 0 0016 0c-2.094 0-4.188.417-6.123 1.218a16.047 16.047 0 00-5.19 3.468 16.047 16.047 0 00-3.47 5.191A16.054 16.054 0 000 16c0 2.094.417 4.188 1.218 6.123a16.046 16.046 0 003.468 5.19 16.046 16.046 0 005.191 3.47A16.054 16.054 0 0016 32c2.094 0 4.188-.417 6.123-1.218a16.046 16.046 0 005.19-3.468 16.046 16.046 0 003.47-5.191A16.054 16.054 0 0032 16z" fill="#FFA415"/><path fill-rule="evenodd" clip-rule="evenodd" d="M8.433 19.929v1.164h.582v.582h.582v.582h.583v.582h.582v.582h.582v.582h.582V22.84h-.582v-.582h-.582v-.582h-.582v-.582h-.583v-.582h-.582v-.582h-.582z" fill="#000"/><path fill-rule="evenodd" clip-rule="evenodd" d="M11.926 24.585h.582V21.675h-.582V24.585zM11.344 21.675h.582v-1.164h-.582v1.164zM10.762 20.511h.582v-1.164h-.582v1.164zM10.18 19.347h.582v-2.328h-.582v2.328zM9.597 17.019h.583v-1.746h-.583v1.746z" fill="#C7C7C7"/><path fill-rule="evenodd" clip-rule="evenodd" d="M9.015 15.273h.582V13.526h-.582V15.273zM8.433 13.526h.582v-1.164h-.582v1.164zM7.851 11.78v.582h.582v-.582h-.582z" fill="#C7C7C7"/><path fill-rule="evenodd" clip-rule="evenodd" d="M23.567 19.929v1.164h-.582v.582h-.582v.582h-.582v.582h-.583v.582h-.582v.582h-.582V22.84h.582v-.582h.582v-.582h.582v-.582h.583v-.582h.582v-.582h.582z" fill="#000"/><path fill-rule="evenodd" clip-rule="evenodd" d="M20.074 24.585h-.582V21.675h.582V24.585zM20.656 21.675h-.582v-1.164h.582v1.164zM21.238 20.511h-.582v-1.164h.582v1.164zM21.82 19.347h-.582v-2.328h.582v2.328zM22.402 17.019h-.582v-1.746h.582v1.746zM22.985 15.273h-.582V13.526h.582V15.273zM23.567 13.526h-.582v-1.164h.582v1.164zM24.149 11.78v.582h-.582v-.582h.582z" fill="#C7C7C7"/><path fill-rule="evenodd" clip-rule="evenodd" d="M7.851 7.124v.582h.582v-.582h-.582zM9.597 7.124v.582h.583v-.582h-.583zM9.597 6.542H8.433v.582h1.164v-.582z" fill="#fff"/><path fill-rule="evenodd" clip-rule="evenodd" d="M9.597 5.96H8.433v.582h1.164V5.96zM11.344 7.124h-.582v-.582H9.597v.582h.583v.582h1.164v-.582z" fill="#C7C7C7"/><path fill-rule="evenodd" clip-rule="evenodd" d="M24.149 7.124v.582h-.582v-.582h.582zM22.402 7.124v.582h-.582v-.582h.582zM22.403 6.542h1.164v.582h-1.164v-.582z" fill="#fff"/><path fill-rule="evenodd" clip-rule="evenodd" d="M22.403 5.96h1.164v.582h-1.164V5.96zM20.656 7.124h.582v-.582h1.165v.582h-.582v.582h-1.165v-.582zM9.597 20.511v.582h.583v-.582h-.583zM10.18 21.093v.582h.582v-.582h-.582zM10.762 21.675v.582h.582v-.582h-.582zM11.344 22.257v.582h.582v-.582h-.582zM9.015 19.929v.582h.582v-.582h-.582zM8.433 19.347v.582h.582v-.582h-.582zM22.402 20.511v.582h-.582v-.582h.582zM21.82 21.093v.582h-.582v-.582h.582zM21.238 21.675v.582h-.582v-.582h.582zM20.656 22.257v.582h-.582v-.582h.582zM22.985 19.929v.582h-.582v-.582h.582zM23.567 19.347v.582h-.582v-.582h.582z" fill="#C7C7C7"/><path fill-rule="evenodd" clip-rule="evenodd" d="M9.015 19.347v.582h.582v.582h.583v.582h.582v.582h.582v-1.164h-.582v-1.164h-.582v-2.328h-.583v-1.746h-.582V13.526h-.582v-1.164h-.582v-.582H7.27v1.164h-.582V14.691h-.582v2.328h.582v1.164h.582v.582h.582v.582h1.164z" fill="#fff"/><path fill-rule="evenodd" clip-rule="evenodd" d="M11.926 21.675h-.582v.582h.582v-.582zM22.985 19.347v.582h-.582v.582h-.582v.582h-.583v.582h-.582v-1.164h.582v-1.164h.582v-2.328h.583v-1.746h.582V13.526h.582v-1.164h.582v-.582h.582v1.164h.582V14.691h.582v2.328h-.582v1.164h-.582v.582h-.582v.582h-1.164z" fill="#fff"/><path fill-rule="evenodd" clip-rule="evenodd" d="M20.074 21.675h.582v.582h-.582v-.582z" fill="#fff"/><path fill-rule="evenodd" clip-rule="evenodd" d="M13.672 11.198h.582V9.452h-.582V8.288h.582v-.582h-.582V6.542h-1.164v.582h-1.164v.582H9.597v-.582H8.433v.582H7.27v2.328h.582v1.746h.582v.582h.582v1.164h.582v1.747h.583v1.746h.582v2.328h.582v1.164h.582v1.164h.582v2.91h.582v-.582h.582v-3.492h.582v-2.91h-.582v-6.403z" fill="#191919"/><path fill-rule="evenodd" clip-rule="evenodd" d="M13.09 19.347h-1.164v-.582h-.582V17.6h.582v-.582h1.164v.582h.582v1.164h-.582v.582z" fill="#000"/><path fill-rule="evenodd" clip-rule="evenodd" d="M11.926 18.183h.582V17.6h-.582v.582z" fill="#fff"/><path fill-rule="evenodd" clip-rule="evenodd" d="M18.328 11.198h-.582V9.452h.582V8.288h-.582v-.582h.582V6.542h1.164v.582h1.164v.582h1.747v-.582h1.164v.582h1.164v2.328h-.582v1.746h-.582v.582h-.582v1.164h-.582v1.747h-.582v1.746h-.583v2.328h-.582v1.164h-.582v1.164h-.582v2.91h-.582v-.582h-.582v-3.492h-.582v-2.91h.582v-6.403z" fill="#191919"/><path fill-rule="evenodd" clip-rule="evenodd" d="M18.91 19.347h1.164v-.582h.582V17.6h-.582v-.582H18.91v.582h-.582v1.164h.582v.582z" fill="#000"/><path fill-rule="evenodd" clip-rule="evenodd" d="M19.492 18.183h-.582V17.6h.582v.582z" fill="#fff"/><path fill-rule="evenodd" clip-rule="evenodd" d="M7.27 7.706V6.542h1.163v.582h-.582v.582H7.27zM24.73 7.706V6.542h-1.163v.582h.582v.582h.582zM14.254 11.198v6.403h-.582v-6.403h.582zM14.254 9.452V8.288h-.582v1.164h.582zM14.254 7.706V6.542h-.582v1.164h.582zM14.254 20.511v3.492h-.582v-3.492h.582zM17.746 11.198v6.403h.582v-6.403h-.582zM17.746 9.452V8.288h.582v1.164h-.582zM17.746 7.706V6.542h.582v1.164h-.582zM17.746 20.511v3.492h.582v-3.492h-.582zM14.254 17.601h.582v2.91h-.582v-2.91zM17.746 17.601h-.582v2.91h.582v-2.91zM14.254 9.452h.582v1.746h-.582V9.452zM17.746 9.452h-.582v1.746h.582V9.452zM14.254 7.706v.582h.582v-.582h-.582zM17.746 7.706v.582h-.582v-.582h.582zM13.09 24.003v.582h.582v-.582h-.582zM13.672 24.585v.582h.582v-.582h-.582z" fill="#C7C7C7"/><path fill-rule="evenodd" clip-rule="evenodd" d="M13.672 24.003v.582h.582v-.582h-.582zM13.09 24.585v.582h.582v-.582h-.582z" fill="#fff"/><path fill-rule="evenodd" clip-rule="evenodd" d="M13.672 26.914v.582h.582v-.582h-.582zM13.672 26.914V25.167h-.582v-.582h-.582v1.164h.582v1.165h.582zM18.328 26.914V25.167h.582v-.582h.582v1.164h-.582v1.165h-.582zM18.328 26.914v.582h-.582v-.582h.582zM18.91 24.003v.582h-.582v-.582h.582zM18.328 24.585v.582h-.582v-.582h.582z" fill="#C7C7C7"/><path fill-rule="evenodd" clip-rule="evenodd" d="M18.328 24.003v.582h-.582v-.582h.582zM18.91 24.585v.582h-.582v-.582h.582z" fill="#fff"/><path fill-rule="evenodd" clip-rule="evenodd" d="M14.254 24.585h3.492v-.582h-3.492v.582z" fill="#C7C7C7"/><path fill-rule="evenodd" clip-rule="evenodd" d="M14.254 25.167v-.582h3.492v.582h.582v1.747h-.582v.582h-.582v.582h-2.328v-.582h-.582v-.582h-.582v-1.747h.582z" fill="#191919"/><path fill-rule="evenodd" clip-rule="evenodd" d="M14.254 6.542h3.492v1.164h-.582v.582h.582v1.164h-.582v1.746h.582v6.403h-.582v2.91h.582v3.492h-3.492v-3.492h.582v-2.91h-.582v-6.403h.582V9.452h-.582V8.288h.582v-.582h-.582V6.542z" fill="#fff"/></svg>
